X:1
T:Mrs. Casey (in D)
M:6/8
L:1/8
C:Traditional
O:Field Town
S:Coventry Morris, via EF
% Nottingham Music Database
P:A.(A2B2)4.A
Q:C3=80
K:D Ionian
"A"[|] f2e |: d2B BcB | A2F A3 |1 Bcd def | g3 f2e :|2 Bcd edc | d3- d2 ||
"B"|: A | d2e f2g | a2b a2A | d2e f2g | a3 a2 a | b2 g a2 f | g2 f e2 d |
d2 c B2 A | g3 f2 e | d2B BcB | A2F A3 | Bcd edc | d3- d2 :|
